X:1
T:Morgan's Orchard
T:The Keel Row
C:Trad. England, Tyneside
M:4/4
L:1/8   
K:G
%%measurenb 0
[|: G>A | "G" B2 G>B "C" c2 A>c | "G" B2 G>B "D" A>F D2 | "G" B2 G>B "C" c2 A>c | "G" B>G "D" A>F "G" G2 :|]
[|: G2 | "G" G>B d>g "C" e2 d>c | "G" B2 G>B "D" A>F D2 | "G" G>B d>g "C" e2 d>c | "G" B>G "D" A>F "G" G2 :|]

%%textfont Times-Italic 12
%%begintext justify

arr. Alison S. 2019-11-17
%%endtext

